X: 1
T: an Coolin (An C\'uilfhionn, The Coolin)
T: the Whipering Wind
R: slow air
Z: 2020 John Chambers <jc:trillian.mit.edu>
S: https://www.facebook.com/groups/Fiddletuneoftheday/ 2020-09-08
S: https://www.facebook.com/groups/Fiddletuneoftheday/photos/
M: 3/4
L: 1/16
K: G
d2ef |\
"G"g4  g4  "(D7)"g3f  | "G"g4   B4   GBd2 | g3f gab2 a3f  | "D7"g4  f4 g3f  |\
"C"e6  fg  agfe | "G"d4   B2d2 g2d2 | "D7"f6 (3edc B2G2 | A3F "G"G4 :|
d3c  |\
"G"B3A G3A B3c  | "D"d3^c d3e  f3d  | "Em"g3f gab2 a3g  | "D7"g4  f4 g3f  |\
"C"e6  fg  agfe | "G"d4   B2d2 g2d2 | "D7"f6 (3edc B2G2 | A3F "G"G4 |]
%%begintext align
%% There are many very different versions of this tune.
%% Either or both parts may be repeated.
%%endtext
